src/assets/img/icons/duotone-icons/Clothes/Briefcase.svg

<?xml version="1.0" encoding="UTF-8"?>
<svg width="24px" height="24px" viewBox="0 0 24 24" version="1.1" xmlns="http://www.w3.org/2000/svg" xmlns:xlink="http://www.w3.org/1999/xlink">
    <!-- Generator: Sketch 52.2 (67145) - http://www.bohemiancoding.com/sketch -->
    <title>Stockholm-icons / Clothes / Briefcase</title>
    <desc>Created with Sketch.</desc>
    <g id="Stockholm-icons-/-Clothes-/-Briefcase" stroke="none" stroke-width="1" fill="none" fill-rule="evenodd">
        <rect id="bound" x="0" y="0" width="24" height="24"></rect>
        <path d="M5.84026576,8 L18.1597342,8 C19.1999115,8 20.0664437,8.79732479 20.1528258,9.83390904 L20.8194924,17.833909 C20.9112219,18.9346631 20.0932459,19.901362 18.9924919,19.9930915 C18.9372479,19.9976952 18.8818364,20 18.8264009,20 L5.1735991,20 C4.0690296,20 3.1735991,19.1045695 3.1735991,18 C3.1735991,17.9445645 3.17590391,17.889153 3.18050758,17.833909 L3.84717425,9.83390904 C3.93355627,8.79732479 4.80008849,8 5.84026576,8 Z M10.5,10 C10.2238576,10 10,10.2238576 10,10.5 L10,11.5 C10,11.7761424 10.2238576,12 10.5,12 L13.5,12 C13.7761424,12 14,11.7761424 14,11.5 L14,10.5 C14,10.2238576 13.7761424,10 13.5,10 L10.5,10 Z" id="Combined-Shape" fill="#335EEA"></path>
        <path d="M10,8 L8,8 L8,7 C8,5.34314575 9.34314575,4 11,4 L13,4 C14.6568542,4 16,5.34314575 16,7 L16,8 L14,8 L14,7 C14,6.44771525 13.5522847,6 13,6 L11,6 C10.4477153,6 10,6.44771525 10,7 L10,8 Z" id="Path-53" fill="#335EEA" opacity="0.3"></path>
    </g>
</svg>

<svg width="24" height="24" viewBox="0 0 24 24" xmlns="http://www.w3.org/2000/svg"><g fill="none" fill-rule="evenodd"><path d="M0 0h24v24H0z"/><path d="M5.84 8h12.32a2 2 0 011.993 1.834l.666 8A2 2 0 0118.826 20H5.174a2 2 0 01-1.993-2.166l.666-8A2 2 0 015.84 8zm4.66 2a.5.5 0 00-.5.5v1a.5.5 0 00.5.5h3a.5.5 0 00.5-.5v-1a.5.5 0 00-.5-.5h-3z" fill="#335EEA"/><path d="M10 8H8V7a3 3 0 013-3h2a3 3 0 013 3v1h-2V7a1 1 0 00-1-1h-2a1 1 0 00-1 1v1z" fill="#335EEA" opacity=".3"/></g></svg>
